X: 55
T: REELS: Earl's Chair Set
T: Pigeon on the Gate
C: C: Trad. / Pakie Moloney; S: Various
C: Set Leaders: Vova, Anton, Sophie
Z: Anton Zille ed., Oleg Naumov arr.; Ian Varley, slainte at The Session
N: https://thesession.org/members/26966/sets/96725
R: Reel
M: 4/4
L: 1/8
Q: 1/2=100
K: Edor
|:"Em"BE~E2 BEdE|"Em"BE~E2 "(A)"dBAF|"D"D2 F/E/D ADFE|"D/F#"DEFA "D/B"BAFA|
"Em"BE~E2 Bdcd|"Em"BE~E2 "A"B2 AF|"D"D2 FA "(Bm)"dfec|"D"dBAF "Em (Bm)"E2 FA:||
|:"Em"Beed efed|"Em"B/c/d ef "G"gfed|"D"Bddc dedB|"Bm"A/B/A FE DEFA|
"Em"Beed "(C)"efed|"(C)"B/c/d ef "G (C)"g2 fg|"D"a/g/f ge fgec|"D"dBAF "Em (Bm)"E2 FA:||
T: Earl's Chair
K: Dmaj
|:"G"B2 dB BAFA|"G"~B2 dB "(A)"BAFB|"D"AF~F2 DF~F2|"D"AFdB ADFA|
"G"B2 dB BAFA|"G"~B2 dB "A"BAFB|"D"A3B defd|1 "A"edef "D"d3A:|2 "A"edef "D"d3f||
|:"A"e3f "D"d2 Bd|"A"edef "D/B"dB A2|"A"~e3f "D"dcde|"D"fedB ADFA|
"Em"e2 ef "(D/F#)"dB~B2|"G"gB~B2 defg|"D"afbf afeg|"A (G)"fedB "D/F#"ADFA:||

